X: 1
T: The Lisnagun
R: jig
M: 6/8
L: 1/8
K: Cmaj
cAG ~c3|deg ~e3|deg edc|dcA cAG|
cAG ~c3|deg ~e3|deg edc|1 dcA c3:|2 dcA cde||
~g3 edc|deg ~e3|deg edc|dcA cAG|
~g3 edc|deg e2c|deg edc|dcA cde|
~g3 age|deg ~e3|deg edc|dcA cAG|
cAG ~c3|deg ~e3|deg edc|dcA c3||


Tune 3842	Setting 22287

